X: 3269
M: 6/8
L: 1/8
K: G
|:\
d3  e3  | dBG G3  | A3  B3  | AFD D3 |\
|:\
g3  a3  | gdd d3  | a3  b3  | aee e3 |\
gbg faf | ege dBd | efg d2c | BGG G3 :|


